src/_assets/activityfeed/admin.svg

<svg width="24" height="24" viewBox="0 0 24 24" fill="none" xmlns="http://www.w3.org/2000/svg">
<path fill-rule="evenodd" clip-rule="evenodd" d="M3 6.93088C3 5.49276 4.26544 4.37914 5.83653 3.66672C7.45376 2.93339 9.63395 2.5 12 2.5C14.366 2.5 16.5462 2.93339 18.1635 3.66672C19.7346 4.37914 21 5.49276 21 6.93088V17.0691C21 18.5072 19.7346 19.6209 18.1635 20.3333C16.5462 21.0666 14.366 21.5 12 21.5C9.63395 21.5 7.45376 21.0666 5.83653 20.3333C4.26544 19.6209 3 18.5072 3 17.0691V6.93088ZM4.54286 6.93088C4.54286 6.30827 5.11944 5.55627 6.52651 4.91823C7.88744 4.30111 9.82154 3.89922 12 3.89922C14.1785 3.89922 16.1126 4.30111 17.4735 4.91823C18.8806 5.55627 19.4571 6.30827 19.4571 6.93088C19.4571 7.55349 18.8806 8.30549 17.4735 8.94353C16.1126 9.56065 14.1785 9.96253 12 9.96253C9.82154 9.96253 7.88744 9.56065 6.52651 8.94353C5.11944 8.30549 4.54286 7.55349 4.54286 6.93088ZM4.54286 17.0691C4.54286 17.6917 5.11944 18.4437 6.52651 19.0818C7.88744 19.6989 9.82154 20.1008 12 20.1008C14.1785 20.1008 16.1126 19.6989 17.4735 19.0818C18.8806 18.4437 19.4571 17.6917 19.4571 17.0691V14.3167C19.0696 14.597 18.63 14.8439 18.1635 15.0555C16.5462 15.7888 14.366 16.2222 12 16.2222C9.63395 16.2222 7.45376 15.7888 5.83653 15.0555C5.36997 14.8439 4.93037 14.597 4.54286 14.3167V17.0691ZM19.4571 9.45621V11.7913C19.4571 12.4139 18.8806 13.166 17.4735 13.804C16.1126 14.4211 14.1785 14.823 12 14.823C9.82154 14.823 7.88744 14.4211 6.52651 13.804C5.11944 13.166 4.54286 12.4139 4.54286 11.7913V9.45621C4.93037 9.73653 5.36997 9.98347 5.83653 10.195C7.45376 10.9284 9.63395 11.3618 12 11.3618C14.366 11.3618 16.5462 10.9284 18.1635 10.195C18.63 9.98347 19.0696 9.73653 19.4571 9.45621Z" fill="#485F7D"/>
</svg>

<svg xmlns="http://www.w3.org/2000/svg" width="24" height="24" fill="none"><path fill="#485F7D" fill-rule="evenodd" d="M3 6.93c0-1.437 1.265-2.55 2.837-3.263C7.454 2.933 9.634 2.5 12 2.5s4.546.433 6.163 1.167C19.736 4.379 21 5.493 21 6.93v10.138c0 1.438-1.265 2.552-2.837 3.264-1.617.734-3.797 1.167-6.163 1.167s-4.546-.433-6.163-1.167C4.265 19.621 3 18.507 3 17.07zm1.543 0c0-.622.576-1.374 1.984-2.012C7.887 4.301 9.822 3.9 12 3.9s4.113.402 5.474 1.02c1.407.637 1.983 1.39 1.983 2.012s-.576 1.374-1.983 2.013C16.113 9.56 14.178 9.963 12 9.963s-4.113-.402-5.473-1.02c-1.408-.638-1.984-1.39-1.984-2.012m0 10.14c0 .622.576 1.374 1.984 2.012C7.887 19.699 9.822 20.1 12 20.1s4.113-.402 5.474-1.02c1.407-.637 1.983-1.39 1.983-2.012v-2.752a7.5 7.5 0 0 1-1.294.739c-1.617.733-3.797 1.166-6.163 1.166s-4.546-.433-6.163-1.167a7.5 7.5 0 0 1-1.294-.738zm14.914-7.614v2.335c0 .623-.576 1.375-1.983 2.013-1.361.617-3.296 1.019-5.474 1.019s-4.113-.402-5.473-1.019c-1.408-.638-1.984-1.39-1.984-2.013V9.456c.387.28.827.527 1.294.739 1.617.733 3.797 1.167 6.163 1.167s4.546-.434 6.163-1.167a7.5 7.5 0 0 0 1.294-.739" clip-rule="evenodd"/></svg>
